src/build/icons/LineIcons/edit.svg

<svg width="40" height="40" version="1.1" viewBox="0 -2 40 40" xmlns="http://www.w3.org/2000/svg">
 <g fill="none" fill-rule="evenodd">
  <g transform="translate(-512,-97)" fill="#f00">
   <path d="m527.79 122.02-5.372 3.253c-0.489 0.228-0.929-0.244-0.701-0.702l3.252-5.376 2.821 2.825zm9.453-15.798 3.537 3.49-11.24 11.247c-1.316-1.318-3.139-3.142-3.512-3.515l11.215-11.222zm3.537-3.539c0.388-0.389 1.017-0.389 1.406 0l2.107 2.108c0.388 0.389 0.388 1.018 0 1.406l-2.107 2.109-3.463-3.566 2.057-2.057zm-16.666 14.385-4.3 8.705c-0.361 0.981 0.423 1.859 1.403 1.404l8.699-4.303c0.375-0.073 0.739-0.219 1.029-0.509l15.455-15.466c0.776-0.775 0.776-2.035 0-2.811l-3.512-3.515c-0.777-0.776-2.034-0.776-2.81 0l-15.455 15.465c-0.291 0.291-0.435 0.655-0.509 1.03zm21.89-6.068v16c0 1.099-1.086 2.012-2.183 2.012h-23.843c-1.097 0-1.987-0.89-1.987-1.989v-23.858c0-1.099 0.915-2.165 2.013-2.165h16v-2h-16c-2.194 0-4 1.969-4 4.165v23.858c0 2.197 1.779 3.977 3.974 3.977h23.843c2.195 0 4.183-1.804 4.183-4v-16h-2z"/>
  </g>
 </g>
</svg>

<svg width="40px" height="40px" viewBox="0 0 40 40" version="1.1" xmlns="http://www.w3.org/2000/svg" xmlns:xlink="http://www.w3.org/1999/xlink">
    <defs>
        <filter x="-1.7%" y="-0.9%" width="103.4%" height="101.8%" filterUnits="objectBoundingBox" id="filter-1">
            <feOffset dx="0" dy="2" in="SourceAlpha" result="shadowOffsetOuter1"></feOffset>
            <feGaussianBlur stdDeviation="2" in="shadowOffsetOuter1" result="shadowBlurOuter1"></feGaussianBlur>
            <feColorMatrix values="0 0 0 0 0   0 0 0 0 0   0 0 0 0 0  0 0 0 0.5 0" type="matrix" in="shadowBlurOuter1" result="shadowMatrixOuter1"></feColorMatrix>
            <feMerge>
                <feMergeNode in="shadowMatrixOuter1"></feMergeNode>
                <feMergeNode in="SourceGraphic"></feMergeNode>
            </feMerge>
        </filter>
    </defs>
    <g id="Page-1" stroke="none" stroke-width="1" fill="none" fill-rule="evenodd">
        <g id="Icon-Set" filter="url(#filter-1)" transform="translate(-512.000000, -97.000000)" fill="#FFFFFE">
            <path d="M527.786,122.02 L522.414,125.273 C521.925,125.501 521.485,125.029 521.713,124.571 L524.965,119.195 L527.786,122.02 L527.786,122.02 Z M537.239,106.222 L540.776,109.712 L529.536,120.959 C528.22,119.641 526.397,117.817 526.024,117.444 L537.239,106.222 L537.239,106.222 Z M540.776,102.683 C541.164,102.294 541.793,102.294 542.182,102.683 L544.289,104.791 C544.677,105.18 544.677,105.809 544.289,106.197 L542.182,108.306 L538.719,104.74 L540.776,102.683 L540.776,102.683 Z M524.11,117.068 L519.81,125.773 C519.449,126.754 520.233,127.632 521.213,127.177 L529.912,122.874 C530.287,122.801 530.651,122.655 530.941,122.365 L546.396,106.899 C547.172,106.124 547.172,104.864 546.396,104.088 L542.884,100.573 C542.107,99.797 540.85,99.797 540.074,100.573 L524.619,116.038 C524.328,116.329 524.184,116.693 524.11,117.068 L524.11,117.068 Z M546,111 L546,127 C546,128.099 544.914,129.012 543.817,129.012 L519.974,129.012 C518.877,129.012 517.987,128.122 517.987,127.023 L517.987,103.165 C517.987,102.066 518.902,101 520,101 L536,101 L536,99 L520,99 C517.806,99 516,100.969 516,103.165 L516,127.023 C516,129.22 517.779,131 519.974,131 L543.817,131 C546.012,131 548,129.196 548,127 L548,111 L546,111 L546,111 Z" id="Fill-214"></path>
        </g>
    </g>
</svg>
